icon/pk/bottom-bar-one.svg

<svg viewBox="0 0 49 48" fill="none" xmlns="http://www.w3.org/2000/svg" height="1em" width="1em">
  <path d="M13.7773 20H17.7773C17.7773 20 24.7773 27.28 24.7773 34C24.7773 40.72 18.7773 44 18.7773 44H12.7773C12.7773 44 6.77734 40.72 6.77734 34C6.77734 27.28 13.7773 20 13.7773 20Z" fill="#2F88FF" stroke="black" stroke-width="4" stroke-linecap="round" stroke-linejoin="round"/>
  <path d="M15.7773 4C17.8607 4 20.7773 5.52 20.7773 10C20.7773 14.48 17.444 20 17.444 20H14.1107C14.1107 20 10.7773 14.48 10.7773 10C10.7773 5.52 13.694 4 15.7773 4Z" fill="#2F88FF" stroke="black" stroke-width="4" stroke-linecap="round" stroke-linejoin="round"/>
  <path d="M31.7773 20H35.7773C35.7773 20 42.7773 27.28 42.7773 34C42.7773 40.72 36.7773 44 36.7773 44H30.7773C30.7773 44 24.7773 40.72 24.7773 34C24.7773 27.28 31.7773 20 31.7773 20Z" fill="#2F88FF" stroke="black" stroke-width="4" stroke-linecap="round" stroke-linejoin="round"/>
  <path d="M33.7773 4C35.8607 4 38.7773 5.52 38.7773 10C38.7773 14.48 35.444 20 35.444 20H32.1107C32.1107 20 28.7773 14.48 28.7773 10C28.7773 5.52 31.694 4 33.7773 4Z" fill="#2F88FF" stroke="black" stroke-width="4" stroke-linecap="round" stroke-linejoin="round"/>
</svg>

<svg width="49" height="48" fill="none" xmlns="http://www.w3.org/2000/svg"><path d="M13.777 20h4s7 7.28 7 14-6 10-6 10h-6s-6-3.28-6-10c0-6.72 7-14 7-14ZM15.777 4c2.084 0 5 1.52 5 6s-3.333 10-3.333 10h-3.333s-3.334-5.52-3.334-10 2.917-6 5-6ZM31.777 20h4s7 7.28 7 14-6 10-6 10h-6s-6-3.28-6-10c0-6.72 7-14 7-14ZM33.777 4c2.084 0 5 1.52 5 6s-3.333 10-3.333 10h-3.333s-3.334-5.52-3.334-10 2.917-6 5-6Z" fill="#2F88FF" stroke="#000" stroke-width="4" stroke-linecap="round" stroke-linejoin="round"/></svg>
